X:6
T:Agamemnon at Buswell
C:T. S. Macdonald
M:C|
L:1/8
K:Dm
F | D<dd>c d<ff>d | c<FA>G F<CC>c | D<dd>c d<ff>g | a>f (a/g/)f/e/ f<dd>F |
    D<dd>c d<ff>g | c'<eg>f e<cc>d | f>ef>g a>fe<d | c/=B/A/B/ c/d/e/g/ f<d d ||
f/g/ | a>fd<A f>dA<F | G>=Bc>G E<CC>g | a>fd<A d>fa>f | g<e (a/g/)f/e/ f<dd>g |
       a<df<d A>df<d | c>e (g/f/)e/d/ e<cc>d | f>ef>g a>fe<d | c/=B/A/B/ c/d/e/g/ f>d d|]

